X: 12
M:3/4
L:1/8
K:Eb
"Adagio"E>F|G2 B<G F<E|F2 E2 E>F|G2 B<G F<E|F4 E>F|
E>F|G2 B2 B>c|B2 AG F>G|E2 e2 e>f|e4 E>F|
d>c d>e f>d|c>B c>d e>c|B>c eG FE|F4 EF|

